_includes/icons/color-linux.svg

<svg fill="#666" height="50" viewBox="0 0 48 48" width="50" xmlns="http://www.w3.org/2000/svg"><path d="m20.101563 16.199219.097656 2.300781-1.597656 3-2.5 4.898438-.5 4.101562 1.796875 5.800781 4.101562 2.300782h6.199219l5.800781-4.402344 2.601563-6.898438-6-7.300781-1.703125-4.101562z" fill="#eceff1"/><path d="m34.300781 21.898438c-1.601562-2.296875-2.902343-3.699219-3.601562-6.597657-.699219-2.902343.199219-2.101562-.398438-4.601562-.300781-1.300781-.800781-2.199219-1.300781-2.898438-.601562-.699218-1.300781-1.101562-1.699219-1.199218-.902343-.5-3-1.300782-5.601562.097656-2.699219 1.402344-2.398438 4.402344-1.898438 10.5 0 .402344-.101562.902344-.300781 1.300781-.398437.898438-1.101562 1.699219-1.699219 2.398438-.699218 1-1.402343 2-1.902343 3.101562-1.199219 2.300781-2.296875 5.199219-2 6.300781.5-.101562 6.800781 9.5 6.800781 9.699219.402344-.101562 2.101562-.101562 3.601562-.101562 2.097657-.097657 3.300782-.199219 5 .203125 0-.300782-.101562-.601563-.101562-.902344 0-.597656.101562-1.097656.199219-1.800781.101562-.5.203125-1 .300781-1.597657-1 .898438-2.800781 1.898438-4.5 2.199219-1.5.300781-4-.199219-5.199219-1.699219.101563 0 .300781 0 .398438-.101562.300781-.097656.601562-.199219.703125-.398438.296875-.5.097656-1-.101563-1.300781s-1.699219-1.398437-2.398437-2c-.703125-.601562-1.101563-.898437-1.5-1.300781 0 0-.601563-.597656-.800782-.800781-.199218-.199219-.300781-.398438-.402343-.5-.199219-.5-.296875-1.097657-.199219-1.898438.101562-1.101562.5-2 1-3 .199219-.398437.699219-1.199219.699219-1.199219s-1.699219 4.199219-.796875 5.5c0 0 .097656-1.300781.5-2.601562.296875-.898438.796875-2.199219 1.398437-2.898438.601563-.699218 2.101563-3.300781 2.199219-4.902343 0-.699219.101562-1.398438.101562-1.898438-.402343-.398437 6.597657-1.398437 7-.300781.097657.402344 1.5 4 2.300782 5.902344.398437.898437.898437 1.699218 1.199218 2.699218.300782 1.097657.5 2.597657.5 4.097657 0 .300781 0 .800781-.101562 1.300781.199219 0 4.101562-4.199219-.5-7.699219 0 0 2.800781 1.300781 2.902344 3.898438.097656 2.101562-.800782 3.800781-1 4.101562.097656 0 2.097656.898438 2.199218.898438.398438 0 1.199219-.296875 1.199219-.296875.101563-.300782.398438-1.101563.398438-1.402344.703125-2.300781-1-6-2.597657-8.300781z" fill="#263238"/><path d="m22.898438 13.300781c0-1.105468-.582032-2-1.296875-2-.71875 0-1.300782.894532-1.300782 2 0 1.105469.582032 2 1.300782 2 .714843 0 1.296875-.894531 1.296875-2z" fill="#eceff1"/><path d="m27.800781 13.199219c0-1.269531-.761718-2.300781-1.699218-2.300781-.941407 0-1.703125 1.03125-1.703125 2.300781s.761718 2.300781 1.703125 2.300781c.9375 0 1.699218-1.03125 1.699218-2.300781z" fill="#eceff1"/><path d="m21.480469 12.335938c-.382813.046875-.625.617187-.542969 1.277343.082031.65625.460938 1.148438.84375 1.101563.382813-.046875.628906-.621094.546875-1.277344-.085937-.65625-.464844-1.152344-.847656-1.101562z" fill="#212121"/><path d="m27 13.601563c0-.71875-.449219-1.300782-1-1.300782s-1 .582032-1 1.300782c0 .714843.449219 1.296875 1 1.296875s1-.582032 1-1.296875z" fill="#212121"/><g fill="#ffc107"><path d="m39.300781 35.601563c-.402343-.203125-1.101562-.5-1.699218-1.402344-.300782-.5-.203125-1.898438-.703125-2.5-.296875-.398438-.699219-.199219-.796875-.199219-.902344.199219-3 1.601563-4.402344 0-.199219-.199219-.5-.5-1-.5s-.699219.199219-.898438.601563c-.199218.398437-.199218.699218-.199218 1.699218 0 .800782 0 1.699219-.101563 2.398438-.199219 1.699219-.5 2.699219-.5 3.699219 0 1.101562.300781 1.800781.699219 2.101562.300781.300781.800781.5 1.902344.5 1.097656 0 1.796875-.398437 2.5-1.101562.5-.5.898437-.699219 2.296875-1.699219 1.101562-.699219 2.800781-1.597656 3.101562-1.898438.199219-.199218.5-.300781.5-.902343 0-.5-.398437-.699219-.699219-.796875z"/><path d="m19.199219 35.898438c-1-1.597657-1.097656-1.898438-1.800781-2.898438-.597657-1-1.898438-2.898437-2.699219-2.898437-.597656 0-.898438.296875-1.300781.699218-.398438.398438-.796875 1.300782-1.5 1.800782-.597657.5-2.296875.398437-2.699219 1-.398438.597656.402344 1.5.402344 3 0 .597656-.5 1-.601563 1.398437-.101562.5-.199219.800781 0 1.199219.398438.601562.898438.800781 4.300781 1.5 1.800782.402344 3.5 1.402344 4.597657 1.5 1.101562.101562 3 0 3-2.699219.101562-1.601562-.796875-2-1.699219-3.601562z"/><path d="m21.101563 17.800781c-.601563-.402343-1.101563-.800781-1.101563-1.402343 0-.597657.398438-.796875 1-1.296875.101563-.101563 1.199219-1.101563 2.300781-1.101563 1.097657 0 2.398438.699219 2.898438.898438.902344.203125 1.800781.402343 1.699219 1.101562-.097657 1-.199219 1.199219-1.199219 1.699219-.699219.199219-2 1.300781-2.898438 1.300781-.402343 0-1 0-1.402343-.101562-.296875-.097657-.796875-.597657-1.296875-1.097657z"/></g><g fill="#634703"><path d="m20.898438 17c.203125.199219.5.398438.800781.5.199219.101563.5.199219.5.199219h.902344c.5 0 1.199218-.199219 1.898437-.597656.699219-.300782.800781-.5 1.300781-.703125.5-.296875 1-.597657.800782-.699219-.203125-.097656-.402344 0-1.101563.402344-.601562.398437-1.101562.597656-1.699219.898437-.300781.101563-.699218.300781-1 .300781-.300781 0-.601562 0-.902343 0-.296875 0-.5-.101562-.796875-.199218-.203125-.101563-.300782-.203125-.402344-.203125-.199219-.097657-.597656-.5-.800781-.597657 0 0-.199219 0-.097657.097657.300782.300781.398438.402343.597657.601562z"/><path d="m23.898438 14.800781c.101562.199219.300781.199219.402343.300782.097657.097656.199219.097656.199219.097656.101563-.097656 0-.300781-.101562-.300781 0-.199219-.5-.199219-.5-.097657z"/><path d="m22.300781 15c0 .101563.199219.199219.199219.101563.101563-.101563.199219-.203125.300781-.203125.199219-.097657.097657-.199219-.199218-.199219-.203125.101562-.203125.199219-.300782.300781z"/></g><path d="m32 32.699219v.300781c.199219.398438.699219.5 1.101563.5.597656 0 1.199218-.398437 1.5-.800781 0-.097656.097656-.199219.199218-.300781.199219-.296875.300782-.5.398438-.597657 0 0-.097656-.101562-.097656-.199218-.101563-.203125-.402344-.402344-.800782-.5-.300781-.101563-.800781-.203125-1-.203125-.902343-.097657-1.402343.203125-1.699218.5 0 0 .097656 0 .097656.101562.199219.199219.300781.398438.300781.699219.101563.199219 0 .300781 0 .5z" fill="#455a64"/></svg>

<svg xmlns="http://www.w3.org/2000/svg" viewBox="0 0 48 48" width="50" height="50" fill="#666"><path d="M 20.101563 16.199219 L 20.199219 18.5 L 18.601563 21.5 L 16.101563 26.398438 L 15.601563 30.5 L 17.398438 36.300781 L 21.5 38.601563 L 27.699219 38.601563 L 33.5 34.199219 L 36.101563 27.300781 L 30.101563 20 L 28.398438 15.898438 Z" fill="#eceff1"/><path d="M 34.300781 21.898438 C 32.699219 19.601563 31.398438 18.199219 30.699219 15.300781 C 30 12.398438 30.898438 13.199219 30.300781 10.699219 C 30 9.398438 29.5 8.5 29 7.800781 C 28.398438 7.101563 27.699219 6.699219 27.300781 6.601563 C 26.398438 6.101563 24.300781 5.300781 21.699219 6.699219 C 19 8.101563 19.300781 11.101563 19.800781 17.199219 C 19.800781 17.601563 19.699219 18.101563 19.5 18.5 C 19.101563 19.398438 18.398438 20.199219 17.800781 20.898438 C 17.101563 21.898438 16.398438 22.898438 15.898438 24 C 14.699219 26.300781 13.601563 29.199219 13.898438 30.300781 C 14.398438 30.199219 20.699219 39.800781 20.699219 40 C 21.101563 39.898438 22.800781 39.898438 24.300781 39.898438 C 26.398438 39.800781 27.601563 39.699219 29.300781 40.101563 C 29.300781 39.800781 29.199219 39.5 29.199219 39.199219 C 29.199219 38.601563 29.300781 38.101563 29.398438 37.398438 C 29.5 36.898438 29.601563 36.398438 29.699219 35.800781 C 28.699219 36.699219 26.898438 37.699219 25.199219 38 C 23.699219 38.300781 21.199219 37.800781 20 36.300781 C 20.101563 36.300781 20.300781 36.300781 20.398438 36.199219 C 20.699219 36.101563 21 36 21.101563 35.800781 C 21.398438 35.300781 21.199219 34.800781 21 34.5 C 20.800781 34.199219 19.300781 33.101563 18.601563 32.5 C 17.898438 31.898438 17.5 31.601563 17.101563 31.199219 C 17.101563 31.199219 16.5 30.601563 16.300781 30.398438 C 16.101563 30.199219 16 30 15.898438 29.898438 C 15.699219 29.398438 15.601563 28.800781 15.699219 28 C 15.800781 26.898438 16.199219 26 16.699219 25 C 16.898438 24.601563 17.398438 23.800781 17.398438 23.800781 C 17.398438 23.800781 15.699219 28 16.601563 29.300781 C 16.601563 29.300781 16.699219 28 17.101563 26.699219 C 17.398438 25.800781 17.898438 24.5 18.5 23.800781 C 19.101563 23.101563 20.601563 20.5 20.699219 18.898438 C 20.699219 18.199219 20.800781 17.5 20.800781 17 C 20.398438 16.601563 27.398438 15.601563 27.800781 16.699219 C 27.898438 17.101563 29.300781 20.699219 30.101563 22.601563 C 30.5 23.5 31 24.300781 31.300781 25.300781 C 31.601563 26.398438 31.800781 27.898438 31.800781 29.398438 C 31.800781 29.699219 31.800781 30.199219 31.699219 30.699219 C 31.898438 30.699219 35.800781 26.5 31.199219 23 C 31.199219 23 34 24.300781 34.101563 26.898438 C 34.199219 29 33.300781 30.699219 33.101563 31 C 33.199219 31 35.199219 31.898438 35.300781 31.898438 C 35.699219 31.898438 36.5 31.601563 36.5 31.601563 C 36.601563 31.300781 36.898438 30.5 36.898438 30.199219 C 37.601563 27.898438 35.898438 24.199219 34.300781 21.898438 Z" fill="#263238"/><path d="M 22.898438 13.300781 C 22.898438 12.195313 22.316406 11.300781 21.601563 11.300781 C 20.882813 11.300781 20.300781 12.195313 20.300781 13.300781 C 20.300781 14.40625 20.882813 15.300781 21.601563 15.300781 C 22.316406 15.300781 22.898438 14.40625 22.898438 13.300781 Z" fill="#eceff1"/><path d="M 27.800781 13.199219 C 27.800781 11.929688 27.039063 10.898438 26.101563 10.898438 C 25.160156 10.898438 24.398438 11.929688 24.398438 13.199219 C 24.398438 14.46875 25.160156 15.5 26.101563 15.5 C 27.039063 15.5 27.800781 14.46875 27.800781 13.199219 Z" fill="#eceff1"/><path d="M 21.480469 12.335938 C 21.097656 12.382813 20.855469 12.953125 20.9375 13.613281 C 21.019531 14.269531 21.398438 14.761719 21.78125 14.714844 C 22.164063 14.667969 22.410156 14.09375 22.328125 13.4375 C 22.242188 12.78125 21.863281 12.285156 21.480469 12.335938 Z" fill="#212121"/><path d="M 27 13.601563 C 27 12.882813 26.550781 12.300781 26 12.300781 C 25.449219 12.300781 25 12.882813 25 13.601563 C 25 14.316406 25.449219 14.898438 26 14.898438 C 26.550781 14.898438 27 14.316406 27 13.601563 Z" fill="#212121"/><path d="M 39.300781 35.601563 C 38.898438 35.398438 38.199219 35.101563 37.601563 34.199219 C 37.300781 33.699219 37.398438 32.300781 36.898438 31.699219 C 36.601563 31.300781 36.199219 31.5 36.101563 31.5 C 35.199219 31.699219 33.101563 33.101563 31.699219 31.5 C 31.5 31.300781 31.199219 31 30.699219 31 C 30.199219 31 30 31.199219 29.800781 31.601563 C 29.601563 32 29.601563 32.300781 29.601563 33.300781 C 29.601563 34.101563 29.601563 35 29.5 35.699219 C 29.300781 37.398438 29 38.398438 29 39.398438 C 29 40.5 29.300781 41.199219 29.699219 41.5 C 30 41.800781 30.5 42 31.601563 42 C 32.699219 42 33.398438 41.601563 34.101563 40.898438 C 34.601563 40.398438 35 40.199219 36.398438 39.199219 C 37.5 38.5 39.199219 37.601563 39.5 37.300781 C 39.699219 37.101563 40 37 40 36.398438 C 40 35.898438 39.601563 35.699219 39.300781 35.601563 Z" fill="#ffc107"/><path d="M 19.199219 35.898438 C 18.199219 34.300781 18.101563 34 17.398438 33 C 16.800781 32 15.5 30.101563 14.699219 30.101563 C 14.101563 30.101563 13.800781 30.398438 13.398438 30.800781 C 13 31.199219 12.601563 32.101563 11.898438 32.601563 C 11.300781 33.101563 9.601563 33 9.199219 33.601563 C 8.800781 34.199219 9.601563 35.101563 9.601563 36.601563 C 9.601563 37.199219 9.101563 37.601563 9 38 C 8.898438 38.5 8.800781 38.800781 9 39.199219 C 9.398438 39.800781 9.898438 40 13.300781 40.699219 C 15.101563 41.101563 16.800781 42.101563 17.898438 42.199219 C 19 42.300781 20.898438 42.199219 20.898438 39.5 C 21 37.898438 20.101563 37.5 19.199219 35.898438 Z" fill="#ffc107"/><path d="M 21.101563 17.800781 C 20.5 17.398438 20 17 20 16.398438 C 20 15.800781 20.398438 15.601563 21 15.101563 C 21.101563 15 22.199219 14 23.300781 14 C 24.398438 14 25.699219 14.699219 26.199219 14.898438 C 27.101563 15.101563 28 15.300781 27.898438 16 C 27.800781 17 27.699219 17.199219 26.699219 17.699219 C 26 17.898438 24.699219 19 23.800781 19 C 23.398438 19 22.800781 19 22.398438 18.898438 C 22.101563 18.800781 21.601563 18.300781 21.101563 17.800781 Z" fill="#ffc107"/><path d="M 20.898438 17 C 21.101563 17.199219 21.398438 17.398438 21.699219 17.5 C 21.898438 17.601563 22.199219 17.699219 22.199219 17.699219 C 22.601563 17.699219 22.898438 17.699219 23.101563 17.699219 C 23.601563 17.699219 24.300781 17.5 25 17.101563 C 25.699219 16.800781 25.800781 16.601563 26.300781 16.398438 C 26.800781 16.101563 27.300781 15.800781 27.101563 15.699219 C 26.898438 15.601563 26.699219 15.699219 26 16.101563 C 25.398438 16.5 24.898438 16.699219 24.300781 17 C 24 17.101563 23.601563 17.300781 23.300781 17.300781 C 23 17.300781 22.699219 17.300781 22.398438 17.300781 C 22.101563 17.300781 21.898438 17.199219 21.601563 17.101563 C 21.398438 17 21.300781 16.898438 21.199219 16.898438 C 21 16.800781 20.601563 16.398438 20.398438 16.300781 C 20.398438 16.300781 20.199219 16.300781 20.300781 16.398438 C 20.601563 16.699219 20.699219 16.800781 20.898438 17 Z" fill="#634703"/><path d="M 23.898438 14.800781 C 24 15 24.199219 15 24.300781 15.101563 C 24.398438 15.199219 24.5 15.199219 24.5 15.199219 C 24.601563 15.101563 24.5 14.898438 24.398438 14.898438 C 24.398438 14.699219 23.898438 14.699219 23.898438 14.800781 Z" fill="#634703"/><path d="M 22.300781 15 C 22.300781 15.101563 22.5 15.199219 22.5 15.101563 C 22.601563 15 22.699219 14.898438 22.800781 14.898438 C 23 14.800781 22.898438 14.699219 22.601563 14.699219 C 22.398438 14.800781 22.398438 14.898438 22.300781 15 Z" fill="#634703"/><path d="M 32 32.699219 C 32 32.800781 32 32.898438 32 33 C 32.199219 33.398438 32.699219 33.5 33.101563 33.5 C 33.699219 33.5 34.300781 33.101563 34.601563 32.699219 C 34.601563 32.601563 34.699219 32.5 34.800781 32.398438 C 35 32.101563 35.101563 31.898438 35.199219 31.800781 C 35.199219 31.800781 35.101563 31.699219 35.101563 31.601563 C 35 31.398438 34.699219 31.199219 34.300781 31.101563 C 34 31 33.5 30.898438 33.300781 30.898438 C 32.398438 30.800781 31.898438 31.101563 31.601563 31.398438 C 31.601563 31.398438 31.699219 31.398438 31.699219 31.5 C 31.898438 31.699219 32 31.898438 32 32.199219 C 32.101563 32.398438 32 32.5 32 32.699219 Z" fill="#455a64"/></svg>
